X: 12246
T: Fairfield
R: march
M: 
K: Dmajor
M:3/4
|:D2 d2 A2|B3 A G2|F3 E D2|E3 D A,2|
D3 E F2|G3 A B2|A3 B d2|c3 e c2|
d3 c d2|B3 A G2|F3 E D2|E3 D A,2|
D3 E F2|G3 A B2|F3 E D2|E3 F E2:|
{|:D3 c d2|B3 f g2|F3 c d2|c3 B A2|
D3 d d/A/|B3 g g/e/|A3 a a/f/|g3 e c2|
d3 c d2|B3 A G2|F3 E D2|E3 D A,2|
D3 E F2|G3 A B2|F3 E D2|E3 F E2:|

